packages/katcn/src/icons/svg/navigation-solid.svg

<svg xmlns="http://www.w3.org/2000/svg" fill="none" viewBox="0 0 24 24"><path fill="#000" d="M17.8 2H8.4l.4.8.4.8 3.6 8 4 8.7.4.8.4.8h.4c2.3 0 4.2-1.9 4.2-4.2V6.2C22 3.9 20.1 2 17.8 2M3.7 15.2l7.2-3.6-3.6-7.9-.4-.9-.4-.8h-.3C3.9 2 2 3.9 2 6.2v9.9l.8-.4zm11.2 5.1-3.3-7.2-7.9 4-.8.4-.9.4C2 20.2 3.9 22 6.2 22h9.5l-.4-.8z"/></svg>

<svg width="24" height="24" viewBox="0 0 24 24" fill="none" xmlns="http://www.w3.org/2000/svg">
<path d="M17.8 2H8.39999L8.79999 2.8L9.19999 3.6L12.8 11.6L16.8 20.3L17.2 21.1L17.6 21.9H18C20.3 21.9 22.2 20 22.2 17.7V6.2C22 3.9 20.1 2 17.8 2Z" fill="black"/>
<path d="M3.7 15.2L10.9 11.6L7.3 3.7L6.9 2.8L6.5 2H6.2C3.9 2 2 3.9 2 6.2V16.1L2.8 15.7L3.7 15.2Z" fill="black"/>
<path d="M14.9 20.3L11.6 13.1L3.7 17.1L2.9 17.5L2 17.9C2 20.2 3.9 22 6.2 22H15.7L15.3 21.2L14.9 20.3Z" fill="black"/>
</svg>
